svgs/light/command.svg

<svg xmlns="http://www.w3.org/2000/svg" viewBox="0 0 512 512"><!--! Font Awesome Pro 6.6.0 by @fontawesome - https://fontawesome.com License - https://fontawesome.com/license (Commercial License) Copyright 2024 Fonticons, Inc. --><path d="M0 88C0 39.4 39.4 0 88 0s88 39.4 88 88l0 56 160 0 0-56c0-48.6 39.4-88 88-88s88 39.4 88 88s-39.4 88-88 88l-56 0 0 160 56 0c48.6 0 88 39.4 88 88s-39.4 88-88 88s-88-39.4-88-88l0-56-160 0 0 56c0 48.6-39.4 88-88 88s-88-39.4-88-88s39.4-88 88-88l56 0 0-160-56 0C39.4 176 0 136.6 0 88zm144 56l0-56c0-30.9-25.1-56-56-56S32 57.1 32 88s25.1 56 56 56l56 0zm32 192l160 0 0-160-160 0 0 160zm-32 32l-56 0c-30.9 0-56 25.1-56 56s25.1 56 56 56s56-25.1 56-56l0-56zm224 0l0 56c0 30.9 25.1 56 56 56s56-25.1 56-56s-25.1-56-56-56l-56 0zm0-224l56 0c30.9 0 56-25.1 56-56s-25.1-56-56-56s-56 25.1-56 56l0 56z"/></svg>

<svg xmlns="http://www.w3.org/2000/svg" viewBox="0 0 512 512"><!--! Font Awesome Pro 6.4.0 by @fontawesome - https://fontawesome.com License - https://fontawesome.com/license (Commercial License) Copyright 2023 Fonticons, Inc. --><path d="M0 88C0 39.4 39.4 0 88 0s88 39.4 88 88v56H336V88c0-48.6 39.4-88 88-88s88 39.4 88 88s-39.4 88-88 88H368V336h56c48.6 0 88 39.4 88 88s-39.4 88-88 88s-88-39.4-88-88V368H176v56c0 48.6-39.4 88-88 88s-88-39.4-88-88s39.4-88 88-88h56V176H88C39.4 176 0 136.6 0 88zm144 56V88c0-30.9-25.1-56-56-56S32 57.1 32 88s25.1 56 56 56h56zm32 192H336V176H176V336zm-32 32H88c-30.9 0-56 25.1-56 56s25.1 56 56 56s56-25.1 56-56V368zm224 0v56c0 30.9 25.1 56 56 56s56-25.1 56-56s-25.1-56-56-56H368zm0-224h56c30.9 0 56-25.1 56-56s-25.1-56-56-56s-56 25.1-56 56v56z"/></svg>
